X:102
T:Hija mia querida
T:Ma fille chérie
C:
O:Sarajevo
Z:Transcrit et/ou corrigé par B@D - 2005-03-23
Z:Pour toute observation mailto:-@-
M:2/4
L:1/8
Q:"Allegretto alla breve"
K:Dm
%%continueall 1
%%staves [1 2]
V:1
D2E2 | F2G2 | A4 | B4 | A4 | A2B2 | A2G2 | F2E2 | D4 |
w:Hi-ja mi-a mi que-ri-_da,~a-man, a-man, a-man
D2E2 | F2G2 | A4 | (B2A2) | G4- | G4- | G4- | G4 | A4- | A2F2 |
w:No te e-ches a la_ mar___ Que_ la
G4- | G2 E2 | F4- | F2E2 | D4 |!breath!B4 | A2G2 | G2F2 | F4 |
w:mar_ 'sta en_ for-tu-na, Mi-ra que te va 
E4 | D4- | D4- | D4- | !breath!D4 | (A2>>B2 | A2)F2 | (G2>>A2 | G2) E2 | (F2>>G2 |
w:lie-var___ Que__ la mar__ 'sta en__
F2)E2 | D4 | !breath!B4 | A2(GA) | G2F2 | (F2EF) | (E2D2) | D4- | D4- | D4- | D4|]
w:_ for-tu-na Mi-ra_ que te va__ lie-_var___
V:2
K:Dm treble
D4 | E4 | F3E | D4 | A,4- | A,2 (B,2 |A,4-) | A,4- |  A,4 | D4 | E4 | F3E | D4 | A,4 | B,2C2 |
D4- | D4- | D4- | D4- | D4- | D4- | D4- | D4- | D4- | D4- | D4- | D4- | D4- | D4- | D4- | D4- | D4- | D4 | 
F4 | D2C2 | D4 | B,2C2 | D4- | D4- | D4- | D4 | F4 | D2C2 |B,4 | B,2 B,2 | A,4- | A,4- | A,4- | A,4 |]
W:
W:Hija mia querida, aman, aman aman,
W:No te eches a la mar
W:Que la mar 'sta en fortuna
W:Mira que te va lievar
W:
W:- Que me lieve y que ma traiga, aman, aman, aman,
W:Siete funtas de hondor
W:Que m'engluta pexe preto
W:Para salva del amor.
W:
W:
W:Ma fille chérie,
W:Ne te jette pas à la mer
W:Car la mer est orageuse,
W:Elle pourrait t'emporter
W:
W:- Qu'elle m'emporte et qu'elle me plonge
W:dans ses profondes abîmes
W:Et que le poisson noir me dévore
W:Pour me sauver de l'amour.




%%header "$P0	 $IR 	$P1"
%%footer $D - Éditions Galouvielle - 2009 - À usage librement privé dans le cadre familial

